X: 13
T:Eds Jig
C:Ed Delaney, April 1, 2001
M:6/8
L:1/8
Q:300
K:D
|"D"dAA "G"BAG|"D"FAF "Em"GFE|"D"DFF "Em"EGG|"D"FAA "A"ABc|
"D"dAA "G"BAG|"D"FAF "Em"GFE|"D"DFF "Em"EGB|"D"AFD D4:|
|"D"Add dfa| "Em"gec gec|"D"dcd "Em"efg |"D"fed "A"e4|
"D"Add dfa| "Em"gec gec|"D"dcd "Em"efg |"A"edc "D"d4:|

